assets/js/back-end/assets/icons/fill-in-the-blanks.svg

<svg clip-rule="evenodd" fill-rule="evenodd" stroke-linejoin="round" stroke-miterlimit="2" viewBox="0 0 28 28" xmlns="http://www.w3.org/2000/svg"><path d="m3.593 3.475h21.773v21.371h-21.773z" fill="#ebebeb"/><path d="m28 3c0-1.656-1.344-3-3-3h-22c-1.656 0-3 1.344-3 3v22c0 1.656 1.344 3 3 3h22c1.656 0 3-1.344 3-3zm-23.333 18h17.5v-2h-17.5zm9.911-5.606c.047 0 .093-.005.14-.017l2.311-.578c.101-.025.194-.078.268-.152l7.103-7.102c.218-.219.339-.509.339-.817 0-.309-.121-.599-.339-.817l-.916-.917c-.437-.436-1.197-.436-1.634 0l-7.103 7.103c-.074.074-.126.167-.152.268l-.578 2.311c-.021.085-.023.174-.004.26.018.086.055.167.109.236s.123.125.202.164c.079.038.166.058.254.058zm1.099-2.593 5.256-5.256.917.916-5.257 5.256-1.221.305zm6.99-6.99.916.917-.916.916-.917-.916z" fill="#ff9066"/></svg>

<?xml version="1.0" encoding="UTF-8" standalone="no"?>
<!DOCTYPE svg PUBLIC "-//W3C//DTD SVG 1.1//EN" "http://www.w3.org/Graphics/SVG/1.1/DTD/svg11.dtd">
<svg width="100%" height="100%" viewBox="0 0 28 28" version="1.1" xmlns="http://www.w3.org/2000/svg" xmlns:xlink="http://www.w3.org/1999/xlink" xml:space="preserve" xmlns:serif="http://www.serif.com/" style="fill-rule:evenodd;clip-rule:evenodd;stroke-linejoin:round;stroke-miterlimit:2;">
    <path d="M28,3C28,1.344 26.656,0 25,0L3,0C1.344,0 0,1.344 0,3L0,25C0,26.656 1.344,28 3,28L25,28C26.656,28 28,26.656 28,25L28,3ZM4.667,21L22.167,21L22.167,19L4.667,19L4.667,21ZM14.578,15.394C14.625,15.394 14.671,15.389 14.718,15.377L17.029,14.799C17.13,14.774 17.223,14.721 17.297,14.647L24.4,7.545C24.618,7.326 24.739,7.036 24.739,6.728C24.739,6.419 24.618,6.129 24.4,5.911L23.484,4.994C23.047,4.558 22.287,4.558 21.85,4.994L14.747,12.097C14.673,12.171 14.621,12.264 14.595,12.365L14.017,14.676C13.996,14.761 13.994,14.85 14.013,14.936C14.031,15.022 14.068,15.103 14.122,15.172C14.176,15.241 14.245,15.297 14.324,15.336C14.403,15.374 14.49,15.394 14.578,15.394ZM15.677,12.801L20.933,7.545L21.85,8.461L16.593,13.717L15.372,14.022L15.677,12.801ZM22.667,5.811L23.583,6.728L22.667,7.644L21.75,6.728L22.667,5.811Z" style="fill:rgb(255,144,102);"/>
</svg>
